icon-themes/breeze_svg/svx/res/symphony/spacing1.svg

<svg viewBox="0 0 16 16" xmlns="http://www.w3.org/2000/svg"><path d="m2 2v1h12v-1zm0 6v1h12v-1zm0 2v1h9v-1zm0 2v1h12v-1z" fill="#4d4d4d"/><path d="m7.5 4-2.5 3h5z" fill="#1d99f3"/></svg>

<svg xmlns="http://www.w3.org/2000/svg" viewBox="0 0 16 16">
 <path 
     style="fill:#4d4d4d" 
     d="M 2 2 L 2 3 L 14 3 L 14 2 L 2 2 z M 2 8 L 2 9 L 14 9 L 14 8 L 2 8 z M 2 10 L 2 11 L 11 11 L 11 10 L 2 10 z M 2 12 L 2 13 L 14 13 L 14 12 L 2 12 z "
     />
 <path 
     style="fill:#1d99f3" 
     d="M 7.5 4 L 5 7 L 10 7 L 7.5 4 z "
     />
</svg>
